X: 20328
T: John Brosnan's
R: polka
M: 2/4
K: Gmajor
|:D/|G>A Bd|ef g2|ed Bd|e/f/e/d/ BA|
GG/A/ B/c/d|ef gf/g/|ed B/d/B/A/|G2 G3/2:|
|:d/|g>f ed|ef g2|ed Bd|e/f/e/d/ Bd|
gg/f/ e/f/e/d/|d/e/f gf/g/|ed B/d/B/A/|G2- G3/2:|

